packages/core/src/svgs/glc.svg

<svg width="24" height="24" viewBox="0 0 24 24" fill="none" xmlns="http://www.w3.org/2000/svg">
<g clip-path="url(#clip0_31_10826)">
<path d="M0 0H24V24H0V0Z" fill="#FFCA3B"/>
<path d="M6.12836 15.2274C7.28251 17.3874 9.55951 18.8574 12.1798 18.8574C15.4245 18.8574 18.1429 16.6039 18.8548 13.5765L18.8569 11.9968C18.8569 11.7696 18.6602 11.5734 18.4331 11.5734H13.7106C13.4835 11.5734 13.2872 11.7701 13.2872 11.9968V13.2966C13.2872 13.5246 13.4758 13.7106 13.7029 13.7145H16.3301C15.9941 14.5429 15.4086 15.4476 14.6552 15.9289C13.9602 16.3725 13.1526 16.6075 12.3281 16.6061V16.6116C11.5662 16.6127 10.8156 16.4274 10.1418 16.0718C9.46802 15.7162 8.89144 15.2012 8.46236 14.5716H9.21408C9.38457 14.5716 9.54809 14.5039 9.66864 14.3833C9.7892 14.2628 9.85693 14.0993 9.85693 13.9288C9.85693 13.7583 9.7892 13.5948 9.66864 13.4742C9.54809 13.3537 9.38457 13.2859 9.21408 13.2859H7.85079C7.78993 13.0802 7.74279 12.8685 7.71065 12.6516C7.66266 12.3363 7.64873 12.0168 7.66908 11.6985C7.68022 11.5099 7.7025 11.3248 7.7355 11.1431H9.21408C9.38457 11.1431 9.54809 11.0753 9.66864 10.9548C9.7892 10.8342 9.85693 10.6707 9.85693 10.5002C9.85693 10.3297 9.7892 10.1662 9.66864 10.0456C9.54809 9.92508 9.38457 9.85735 9.21408 9.85735H8.17308L8.17522 9.85307H8.16751C8.72258 8.77251 9.67831 7.95194 10.8304 7.56674C11.9825 7.18153 13.2396 7.26225 14.3329 7.79164C14.9646 8.09821 15.5183 8.54447 15.9521 9.09664C15.9859 9.14284 16.0297 9.18092 16.0801 9.20811C16.1305 9.2353 16.1863 9.25092 16.2436 9.25384C16.3008 9.25675 16.3579 9.24689 16.4108 9.22496C16.4638 9.20303 16.5111 9.16959 16.5495 9.12707L17.5039 8.11049C17.5735 8.03857 17.6143 7.94366 17.6187 7.84368C17.623 7.74371 17.5906 7.64561 17.5275 7.56792C16.2632 6.05421 14.3072 5.14307 12.1798 5.14307C9.14122 5.14307 6.56422 7.11964 5.66422 9.85735H4.49979C4.32929 9.85735 4.16578 9.92508 4.04522 10.0456C3.92466 10.1662 3.85693 10.3297 3.85693 10.5002C3.85693 10.6707 3.92466 10.8342 4.04522 10.9548C4.16578 11.0753 4.32929 11.1431 4.49979 11.1431H5.38093C5.3581 11.3631 5.3438 11.584 5.33808 11.8052C5.32522 12.2711 5.35822 12.7374 5.43665 13.1972H5.42679L5.44308 13.2859H4.49979C4.32929 13.2859 4.16578 13.3537 4.04522 13.4742C3.92466 13.5948 3.85693 13.7583 3.85693 13.9288C3.85693 14.0993 3.92466 14.2628 4.04522 14.3833C4.16578 14.5039 4.32929 14.5716 4.49979 14.5716H5.82365C5.91408 14.7962 6.01565 15.0148 6.12793 15.2274H6.12836Z" fill="white"/>
</g>
<defs>
<clipPath id="clip0_31_10826">
<rect width="24" height="24" fill="white"/>
</clipPath>
</defs>
</svg>

<svg xmlns="http://www.w3.org/2000/svg" width="24" height="24" fill="none" viewBox="0 0 24 24"><g clip-path="url(#a)"><path fill="#FFCA3B" d="M0 0h24v24H0z"/><path fill="#fff" d="M6.128 15.227a6.86 6.86 0 0 0 12.726-1.65l.003-1.58a.433.433 0 0 0-.424-.424h-4.722a.433.433 0 0 0-.424.424v1.3c0 .228.189.414.416.417h2.627c-.336.829-.921 1.734-1.675 2.215a4.3 4.3 0 0 1-2.327.677v.006a4.67 4.67 0 0 1-3.866-2.04h.752a.643.643 0 1 0 0-1.286H7.851a4.6 4.6 0 0 1-.115-2.143h1.478a.643.643 0 0 0 0-1.286h-1.04l.001-.004h-.007a4.65 4.65 0 0 1 6.165-2.061 4.6 4.6 0 0 1 1.62 1.305.385.385 0 0 0 .596.03l.955-1.017a.41.41 0 0 0 .023-.542c-1.264-1.514-3.22-2.425-5.347-2.425a6.86 6.86 0 0 0-6.516 4.714H4.5a.643.643 0 0 0 0 1.286h.88q-.033.33-.042.662-.02.7.099 1.392h-.01l.016.089H4.5a.643.643 0 0 0 0 1.286h1.324q.135.337.304.655"/></g><defs><clipPath id="a"><path fill="#fff" d="M0 0h24v24H0z"/></clipPath></defs></svg>
